dist/img/icons/pinterest.svg

<svg width="21" height="27" viewBox="0 0 21 27" fill="none" xmlns="http://www.w3.org/2000/svg">
<path d="M10.81 0.951172C3.75996 0.951172 0.204956 6.00617 0.204956 10.2212C0.204956 12.7762 1.17371 15.0449 3.24371 15.8899C3.58496 16.0299 3.88871 15.8962 3.98746 15.5212C4.05621 15.2599 4.21746 14.5999 4.29121 14.3262C4.39246 13.9574 4.35246 13.8262 4.07996 13.5012C3.48121 12.7974 3.09996 11.8812 3.09996 10.5899C3.09996 6.83992 5.90496 3.48367 10.4062 3.48367C14.3925 3.48367 16.5825 5.92242 16.5825 9.16992C16.5825 13.4499 14.6875 17.0599 11.8762 17.0599C10.3225 17.0599 9.16121 15.7762 9.53496 14.2012C9.98121 12.3174 10.845 10.2899 10.845 8.93492C10.845 7.71992 10.1912 6.70867 8.84496 6.70867C7.25871 6.70867 5.98121 8.34867 5.98121 10.5487C5.98121 11.9499 6.45746 12.8974 6.45746 12.8974C6.45746 12.8974 4.83121 19.7787 4.54746 20.9837C3.98121 23.3837 4.46246 26.3274 4.50621 26.6249C4.52746 26.7987 4.75496 26.8437 4.85621 26.7099C5.00246 26.5187 6.89496 24.1812 7.53496 21.8512C7.71996 21.1912 8.57996 17.7762 8.57996 17.7762C9.09871 18.7574 10.6012 19.6224 12.205 19.6224C16.9762 19.6224 20.2112 15.2762 20.2112 9.45117C20.2062 5.05117 16.4775 0.951172 10.8112 0.951172H10.81Z" fill="#134731"/>
</svg>

<svg width="21" height="27" fill="none" xmlns="http://www.w3.org/2000/svg"><path d="M10.81.951C3.76.951.205 6.006.205 10.221c0 2.555.969 4.824 3.039 5.669.341.14.645.006.743-.369.07-.261.23-.921.304-1.195.101-.369.061-.5-.211-.825-.599-.704-.98-1.62-.98-2.911 0-3.75 2.805-7.106 7.306-7.106 3.986 0 6.176 2.438 6.176 5.686 0 4.28-1.895 7.89-4.706 7.89-1.553 0-2.715-1.284-2.341-2.859.446-1.884 1.31-3.911 1.31-5.266 0-1.215-.654-2.226-2-2.226-1.586 0-2.864 1.64-2.864 3.84 0 1.4.476 2.348.476 2.348l-1.91 8.087c-.566 2.4-.085 5.343-.04 5.64.02.175.248.22.35.086.145-.191 2.038-2.529 2.678-4.859.185-.66 1.045-4.075 1.045-4.075.519.981 2.021 1.846 3.625 1.846 4.771 0 8.006-4.346 8.006-10.17-.005-4.4-3.733-8.5-9.4-8.5h-.001z" fill="#134731"/></svg>
